X:1
T:Title
%%score 1 2
L:1/8
Q:1/4=110
M:4/4
K:C
V:1 treble nm="Grand Piano, Staff 1"
V:2 bass nm="Choir Pad, St. Andrew (Thorne)"
V:1
 [CE]3 [CE] D2 [CE]2 | [B,F]2 [CE]2 [DA]2 G2 | [Ec]3 [Ec] [EB]2 [FA]2 | G2 [^FA]2 [DG]4 | %4
w: By~Edward~Henry~Thorne,~1875 * * *||||
 [EG]3 [EG] ^F2 [EG]2 | [_EA]2 [=EG]2 [^Fc]2 B2 | [Ge]3 [Ec] [^Fc]3 [FA] | [Gc]2 [FB]2 [Ec]4- | %8
w: ||||
 [Ec]4 z4 |] %9
w: |
V:2
 [C,G,]3 [C,G,] [B,,G,]2 [C,G,]2 | [D,G,]2 [C,G,]2 [F,B,]2 [E,C]2 | [A,C]3 [A,C] [G,C]2 [F,C]2 | %3
 [E,C]2 [D,C]2 [G,B,]4 | [E,B,]3 [E,B,] [_E,B,]2 [=E,B,]2 | %5
 [^F,B,]2 [E,B,]2[K:treble] [A,_E]2 [G,=E]2 | C3 C [A,E]3[K:bass] [A,C] | [G,E]2 [G,D]2 [C,C]4- | %8
 [C,C]4 z4 |] %9

